X: 26040
T: Mazurka Róise
R: mazurka
M: 3/4
K: Gmajor
GA|B2 Be dc|B2 B2 DE|FE FA GF|ED B,G, B,D|
B2 Be dc|B2 B2 DE|FE FA GF|G2 G2:|
(3def|g2Bg fg|e2A2dc|BA GF AF|GF ED ef|
g2Bg fg|e2A2dc|BA GF AF|G2 G2:|

